icons/production/slack.svg

<?xml version="1.0" encoding="UTF-8" standalone="no"?>
<svg width="24px" height="24px" viewBox="0 0 24 24" version="1.1" xmlns="http://www.w3.org/2000/svg">
<!--Generator: Sketch 3.8.3 (29802) - http://www.bohemiancoding.com/sketch-->
    <title>
        slack
    </title>
    <desc>
        Created with Sketch.
    </desc>
    <g id="Page-1" stroke="none" stroke-width="1" fill="none" fill-rule="evenodd">
        <path d="M10.2326,11.1611 L12.9056,10.2659 L13.7674,12.8388 L11.0944,13.734 L10.2326,11.1611 L10.2326,11.1611 Z M17.6888,13.7128 C18.2319,13.5309 18.5247,12.9432 18.3428,12.4001 C18.1611,11.8571 17.5734,11.5644 17.0302,11.7461 L15.734,12.1802 L14.8722,9.60732 L16.1684,9.17321 C16.7115,8.9913 17.0043,8.40363 16.8224,7.86054 C16.6406,7.31755 16.0531,7.02472 15.5098,7.20654 L14.2135,7.64068 L13.7643,6.29942 C13.5825,5.75634 12.9947,5.46355 12.4517,5.64542 C11.9087,5.82727 11.6158,6.415 11.7977,6.95808 L12.2469,8.29932 L9.57389,9.19453 L9.12465,7.85326 C8.94283,7.31027 8.35525,7.01748 7.81209,7.19925 C7.26899,7.38116 6.97615,7.96884 7.15807,8.51192 L7.60731,9.85314 L6.31122,10.2872 C5.76813,10.4691 5.47529,11.0568 5.65721,11.5999 C5.79951,12.0248 6.19028,12.2965 6.61373,12.3075 L6.96978,12.2539 L8.26601,11.8198 L9.12776,14.3927 L7.83151,14.8268 C7.28842,15.0087 6.99559,15.5964 7.17751,16.1395 C7.3198,16.5644 7.71058,16.8361 8.13401,16.8471 L8.49007,16.7935 L9.78646,16.3593 L10.2357,17.7006 C10.378,18.1255 10.7688,18.3972 11.1922,18.4082 L11.5483,18.3546 C12.0914,18.1727 12.3842,17.585 12.2023,17.0419 L11.7531,15.7007 L14.4261,14.8055 L14.8753,16.1468 C15.0176,16.5717 15.4083,16.8434 15.8318,16.8544 L16.1879,16.8008 C16.7309,16.6189 17.0238,16.0312 16.8419,15.4881 L16.3926,14.1469 L17.6888,13.7128 L17.6888,13.7128 Z M21.1657,9.25016 C23.2281,16.1244 21.6241,19.1033 14.7499,21.1657 C7.87557,23.2281 4.89669,21.6241 2.8343,14.7498 C0.771927,7.87557 2.37589,4.89667 9.25018,2.83429 C16.1244,0.771912 19.1034,2.37588 21.1657,9.25016 L21.1657,9.25016 Z" id="slack" fill="#000"/>
    </g>
</svg>

<svg xmlns="http://www.w3.org/2000/svg" viewBox="0 0 24 24">
    <path fill-rule="evenodd" d="M10.233 11.161l2.673-.895.861 2.573-2.673.895-.861-2.573zm7.456 2.552a1.037 1.037 0 0 0-.659-1.967l-1.296.434-.862-2.573 1.296-.434a1.037 1.037 0 0 0-.658-1.966l-1.296.434-.45-1.342a1.037 1.037 0 1 0-1.966.66l.449 1.34-2.673.896-.45-1.342a1.037 1.037 0 0 0-1.966.659l.45 1.341-1.297.434a1.037 1.037 0 0 0 .303 2.02l.356-.053 1.296-.434.862 2.573-1.296.434a1.037 1.037 0 0 0 .302 2.02l.356-.053 1.296-.435.45 1.342c.142.424.533.696.956.707l.356-.053c.543-.182.836-.77.654-1.313l-.449-1.341 2.673-.896.45 1.342c.142.425.532.696.956.707l.356-.053c.543-.182.836-.77.654-1.313l-.45-1.341 1.297-.434zm3.477-4.463c2.062 6.874.458 9.853-6.416 11.916-6.874 2.062-9.853.458-11.916-6.416C.772 7.876 2.376 4.897 9.25 2.834c6.874-2.062 9.853-.458 11.916 6.416z"/>
</svg>
